X:1
T: Lord Ballenden
C:George Jenkins
R:Strathspey
Q: 128
K:E
M:4/4
L:1/16
|:e2|B4 B3G G2F2 F3e|B4 B3G B2e2 g3f|e3c B2G2 G2F2 F3G|EB,3 B,3C E4 E2:|
|:a2|ge3 e3g a3g f2b2|g2e2 e3b g2e2 b2g2|a3f g3e f3e c3f|e3c B2G2 B4 B2:|
|:e2|E3B G3B F3E C2F2|E3B G3B E3e g2e2|f3d e3G F3E C2f2|e3c B2G2 B4 B2:|
|:g2|e3b g3b agfe c2f2|e3b g3b e3g b2g2|a2ba g2ag agfe c3f|e3c B2G2 B4 B2:|
